<?xml version="1.0" encoding="UTF-8"?>
<map version="1.10" tiledversion="1.12.2" orientation="orthogonal" renderorder="right-down" width="125" height="75" tilewidth="32" tileheight="32" infinite="0" nextlayerid="5" nextobjectid="208">
 <imagelayer id="1" name="bg">
  <image source="castle_floor.png" width="4000" height="2400"/>
 </imagelayer>
 <objectgroup id="2" name="Walls">
  <object id="1" name="Wall" x="0" y="0" width="4000" height="192"/>
  <object id="2" name="Wall" x="0" y="192" width="256" height="1888"/>
  <object id="3" name="Wall" x="1280" y="192" width="128" height="160"/>
  <object id="4" name="Wall" x="2592" y="192" width="128" height="160"/>
  <object id="5" name="Wall" x="3744" y="192" width="256" height="1888"/>
  <object id="6" name="Wall" x="1280" y="512" width="128" height="384"/>
  <object id="7" name="Wall" x="2592" y="512" width="128" height="384"/>
  <object id="8" name="Wall" x="256" y="640" width="416" height="128"/>
  <object id="9" name="Wall" x="864" y="640" width="416" height="128"/>
  <object id="10" name="Wall" x="2720" y="640" width="416" height="128"/>
  <object id="11" name="Wall" x="3328" y="640" width="416" height="128"/>
  <object id="12" name="Wall" x="1280" y="1056" width="128" height="224"/>
  <object id="13" name="Wall" x="2592" y="1056" width="128" height="224"/>
  <object id="14" name="Wall" x="256" y="1152" width="384" height="128"/>
  <object id="15" name="Wall" x="832" y="1152" width="448" height="128"/>
  <object id="16" name="Wall" x="1408" y="1152" width="480" height="128"/>
  <object id="17" name="Wall" x="2080" y="1152" width="512" height="128"/>
  <object id="18" name="Wall" x="2720" y="1152" width="448" height="128"/>
  <object id="19" name="Wall" x="3360" y="1152" width="384" height="128"/>
  <object id="20" name="Wall" x="256" y="1952" width="1632" height="128"/>
  <object id="21" name="Wall" x="2080" y="1952" width="1664" height="128"/>
  <object id="22" name="Wall" x="1824" y="2208" width="32" height="32"/>
  <object id="23" name="Wall" x="2112" y="2208" width="32" height="32"/>
  <object id="24" name="throne" x="1920" y="192" width="128" height="96"/>
  <object id="25" name="brazier" x="1792" y="192" width="32" height="32"/>
  <object id="26" name="brazier" x="2144" y="192" width="32" height="32"/>
  <object id="27" name="pillar" x="1568" y="416" width="64" height="64"/>
  <object id="28" name="pillar" x="2368" y="416" width="64" height="64"/>
  <object id="29" name="pillar" x="1568" y="576" width="64" height="64"/>
  <object id="30" name="pillar" x="2368" y="576" width="64" height="64"/>
  <object id="31" name="pillar" x="1568" y="736" width="64" height="64"/>
  <object id="32" name="pillar" x="2368" y="736" width="64" height="64"/>
  <object id="33" name="pillar" x="1568" y="896" width="64" height="64"/>
  <object id="34" name="pillar" x="2368" y="896" width="64" height="64"/>
  <object id="35" name="armour" x="1408" y="640" width="32" height="32"/>
  <object id="36" name="armour" x="2560" y="640" width="32" height="32"/>
  <object id="37" name="armour" x="1408" y="768" width="32" height="32"/>
  <object id="38" name="armour" x="2560" y="768" width="32" height="32"/>
  <object id="39" name="bed" x="320" y="192" width="64" height="96"/>
  <object id="40" name="chest" x="320" y="288" width="32" height="32"/>
  <object id="41" name="bed" x="448" y="192" width="64" height="96"/>
  <object id="42" name="bed" x="576" y="192" width="64" height="96"/>
  <object id="43" name="chest" x="576" y="288" width="32" height="32"/>
  <object id="44" name="bed" x="704" y="192" width="64" height="96"/>
  <object id="45" name="bed" x="832" y="192" width="64" height="96"/>
  <object id="46" name="chest" x="832" y="288" width="32" height="32"/>
  <object id="47" name="bed" x="960" y="192" width="64" height="96"/>
  <object id="48" name="bed" x="1088" y="192" width="64" height="96"/>
  <object id="49" name="chest" x="1088" y="288" width="32" height="32"/>
  <object id="50" name="table" x="512" y="448" width="288" height="64"/>
  <object id="51" name="rack" x="256" y="608" width="96" height="32"/>
  <object id="52" name="shelf" x="256" y="768" width="160" height="32"/>
  <object id="53" name="shelf" x="416" y="768" width="160" height="32"/>
  <object id="54" name="shelf" x="960" y="768" width="160" height="32"/>
  <object id="55" name="shelf" x="1120" y="768" width="160" height="32"/>
  <object id="56" name="desk" x="384" y="928" width="96" height="64"/>
  <object id="57" name="desk" x="896" y="928" width="96" height="64"/>
  <object id="58" name="rack" x="256" y="992" width="32" height="96"/>
  <object id="59" name="altar" x="3168" y="192" width="160" height="64"/>
  <object id="60" name="pew" x="2848" y="320" width="160" height="32"/>
  <object id="61" name="pew" x="3424" y="320" width="160" height="32"/>
  <object id="62" name="pew" x="2848" y="416" width="160" height="32"/>
  <object id="63" name="pew" x="3424" y="416" width="160" height="32"/>
  <object id="64" name="pew" x="2848" y="512" width="160" height="32"/>
  <object id="65" name="pew" x="3424" y="512" width="160" height="32"/>
  <object id="66" name="candelabra" x="2912" y="192" width="32" height="32"/>
  <object id="67" name="candelabra" x="3552" y="192" width="32" height="32"/>
  <object id="68" name="fountain" x="3168" y="896" width="160" height="160"/>
  <object id="69" name="hedge" x="2816" y="832" width="224" height="32"/>
  <object id="70" name="hedge" x="3456" y="832" width="224" height="32"/>
  <object id="71" name="hedge" x="2816" y="1056" width="224" height="32"/>
  <object id="72" name="hedge" x="3456" y="1056" width="224" height="32"/>
  <object id="73" name="tree" x="2880" y="928" width="64" height="64"/>
  <object id="74" name="tree" x="3584" y="928" width="64" height="64"/>
  <object id="75" name="stable" x="256" y="1280" width="384" height="160"/>
  <object id="76" name="cart" x="736" y="1408" width="96" height="64"/>
  <object id="77" name="stall" x="896" y="1440" width="128" height="64"/>
  <object id="78" name="stall" x="1120" y="1440" width="128" height="64"/>
  <object id="79" name="stall" x="896" y="1760" width="128" height="64"/>
  <object id="80" name="stall" x="1120" y="1760" width="128" height="64"/>
  <object id="81" name="well" x="1504" y="1408" width="64" height="64"/>
  <object id="82" name="forge" x="3456" y="1280" width="128" height="96"/>
  <object id="83" name="anvil" x="3392" y="1408" width="32" height="32"/>
  <object id="84" name="dummy" x="2560" y="1728" width="32" height="32"/>
  <object id="85" name="dummy" x="2560" y="1824" width="32" height="32"/>
  <object id="86" name="dummy" x="2688" y="1728" width="32" height="32"/>
  <object id="87" name="dummy" x="2688" y="1824" width="32" height="32"/>
  <object id="88" name="dummy" x="2816" y="1728" width="32" height="32"/>
  <object id="89" name="dummy" x="2816" y="1824" width="32" height="32"/>
  <object id="90" name="dummy" x="2944" y="1728" width="32" height="32"/>
  <object id="91" name="dummy" x="2944" y="1824" width="32" height="32"/>
  <object id="92" name="target" x="3200" y="1824" width="64" height="32"/>
  <object id="93" name="target" x="3360" y="1824" width="64" height="32"/>
  <object id="94" name="lantern" x="1824" y="1344" width="32" height="32"/>
  <object id="95" name="lantern" x="2112" y="1344" width="32" height="32"/>
  <object id="96" name="lantern" x="1824" y="1856" width="32" height="32"/>
  <object id="97" name="lantern" x="2112" y="1856" width="32" height="32"/>
  <object id="98" name="lantern" x="1824" y="2240" width="32" height="32"/>
  <object id="99" name="lantern" x="2112" y="2240" width="32" height="32"/>
  <object id="100" name="cart" x="736" y="1792" width="96" height="64"/>
  <object id="101" name="trough" x="256" y="1504" width="96" height="32"/>
  <object id="102" name="hay" x="384" y="1824" width="64" height="32"/>
  <object id="103" name="hay" x="448" y="1824" width="64" height="32"/>
  <object id="104" name="hay" x="416" y="1792" width="64" height="32"/>
  <object id="105" name="stall" x="1344" y="1792" width="128" height="64"/>
  <object id="106" name="stall" x="2368" y="1440" width="128" height="64"/>
  <object id="107" name="stall" x="2816" y="1408" width="128" height="64"/>
  <object id="108" name="statue" x="2432" y="1760" width="64" height="64"/>
  <object id="109" name="tent" x="3616" y="1760" width="128" height="128"/>
  <object id="110" name="hay" x="3168" y="1728" width="32" height="32"/>
  <object id="111" name="hay" x="544" y="1504" width="32" height="32"/>
  <object id="112" name="hay" x="1664" y="1856" width="32" height="32"/>
  <object id="113" name="hay" x="800" y="1696" width="32" height="32"/>
  <object id="114" name="hay" x="576" y="1728" width="32" height="32"/>
  <object id="115" name="hay" x="3104" y="1408" width="32" height="32"/>
  <object id="116" name="barrel" x="2304" y="1856" width="32" height="32"/>
  <object id="117" name="barrel" x="3520" y="1440" width="32" height="32"/>
  <object id="118" name="barrel" x="2592" y="1376" width="32" height="32"/>
  <object id="119" name="barrel" x="3392" y="1536" width="32" height="32"/>
  <object id="120" name="barrel" x="1568" y="1536" width="32" height="32"/>
  <object id="121" name="barrel" x="352" y="1696" width="32" height="32"/>
  <object id="122" name="barrel" x="1568" y="1760" width="32" height="32"/>
  <object id="123" name="barrel" x="2272" y="1728" width="32" height="32"/>
  <object id="124" name="barrel" x="2976" y="1536" width="32" height="32"/>
  <object id="125" name="barrel" x="3616" y="1472" width="32" height="32"/>
  <object id="126" name="barrel" x="2624" y="1472" width="32" height="32"/>
  <object id="127" name="barrel" x="2272" y="1472" width="32" height="32"/>
  <object id="128" name="crate" x="3296" y="1408" width="32" height="32"/>
  <object id="129" name="crate" x="704" y="1312" width="32" height="32"/>
  <object id="130" name="crate" x="1376" y="1696" width="32" height="32"/>
  <object id="131" name="crate" x="3040" y="1696" width="32" height="32"/>
  <object id="132" name="crate" x="1696" y="1728" width="32" height="32"/>
  <object id="133" name="crate" x="3040" y="1856" width="32" height="32"/>
  <object id="134" name="crate" x="736" y="1536" width="32" height="32"/>
  <object id="135" name="crate" x="1376" y="1536" width="32" height="32"/>
  <object id="136" name="crate" x="3008" y="1440" width="32" height="32"/>
  <object id="137" name="crate" x="448" y="1696" width="32" height="32"/>
  <object id="138" name="bush" x="1472" y="2272" width="32" height="32"/>
  <object id="139" name="bush" x="1312" y="2304" width="32" height="32"/>
  <object id="140" name="bush" x="3392" y="2304" width="32" height="32"/>
  <object id="141" name="bush" x="896" y="2304" width="32" height="32"/>
  <object id="142" name="bush" x="2336" y="2304" width="32" height="32"/>
  <object id="143" name="bush" x="1600" y="2272" width="32" height="32"/>
  <object id="144" name="bush" x="2560" y="2304" width="32" height="32"/>
  <object id="145" name="bush" x="3872" y="2272" width="32" height="32"/>
  <object id="146" name="bush" x="2656" y="2272" width="32" height="32"/>
  <object id="147" name="bush" x="128" y="2304" width="32" height="32"/>
  <object id="148" name="tree" x="416" y="2272" width="64" height="64"/>
  <object id="149" name="tree" x="3232" y="2272" width="64" height="64"/>
  <object id="150" name="tree" x="1024" y="2272" width="64" height="64"/>
  <object id="151" name="tree" x="3680" y="2272" width="64" height="64"/>
  <object id="152" name="tree" x="640" y="2272" width="64" height="64"/>
 </objectgroup>
 <objectgroup id="3" name="Pits">
  <object id="153" name="Moat" x="0" y="2080" width="1888" height="128"/>
  <object id="154" name="Moat" x="2080" y="2080" width="1920" height="128"/>
 </objectgroup>
 <objectgroup id="4" name="SpawnLayers">
  <object id="155" name="Player Spawn" x="1984" y="2336">
   <point/>
  </object>
  <object id="156" name="EnemySpawn" x="3696" y="240">
   <point/>
  </object>
  <object id="157" name="EnemySpawn" x="304" y="368">
   <point/>
  </object>
  <object id="158" name="EnemySpawn" x="3952" y="2256">
   <point/>
  </object>
  <object id="159" name="EnemySpawn" x="48" y="2288">
   <point/>
  </object>
  <object id="160" name="EnemySpawn" x="2000" y="624">
   <point/>
  </object>
  <object id="161" name="EnemySpawn" x="3024" y="1392">
   <point/>
  </object>
  <object id="162" name="EnemySpawn" x="1072" y="1456">
   <point/>
  </object>
  <object id="163" name="EnemySpawn" x="2960" y="2352">
   <point/>
  </object>
  <object id="164" name="EnemySpawn" x="976" y="2352">
   <point/>
  </object>
  <object id="165" name="EnemySpawn" x="1200" y="240">
   <point/>
  </object>
  <object id="166" name="EnemySpawn" x="2800" y="240">
   <point/>
  </object>
  <object id="167" name="EnemySpawn" x="2160" y="1488">
   <point/>
  </object>
  <object id="168" name="EnemySpawn" x="3696" y="1008">
   <point/>
  </object>
  <object id="169" name="EnemySpawn" x="304" y="1584">
   <point/>
  </object>
  <object id="170" name="EnemySpawn" x="816" y="816">
   <point/>
  </object>
  <object id="171" name="EnemySpawn" x="3632" y="1680">
   <point/>
  </object>
  <object id="172" name="EnemySpawn" x="1584" y="1840">
   <point/>
  </object>
  <object id="173" name="EnemySpawn" x="2544" y="976">
   <point/>
  </object>
  <object id="174" name="EnemySpawn" x="1456" y="944">
   <point/>
  </object>
  <object id="175" name="EnemySpawn" x="3248" y="624">
   <point/>
  </object>
  <object id="176" name="EnemySpawn" x="2640" y="1840">
   <point/>
  </object>
  <object id="177" name="EnemySpawn" x="336" y="1040">
   <point/>
  </object>
  <object id="178" name="EnemySpawn" x="720" y="1904">
   <point/>
  </object>
  <object id="179" name="EnemySpawn" x="3184" y="1904">
   <point/>
  </object>
  <object id="180" name="EnemySpawn" x="1488" y="2352">
   <point/>
  </object>
  <object id="181" name="EnemySpawn" x="3472" y="2352">
   <point/>
  </object>
  <object id="182" name="EnemySpawn" x="2480" y="2320">
   <point/>
  </object>
  <object id="183" name="EnemySpawn" x="1680" y="240">
   <point/>
  </object>
  <object id="184" name="EnemySpawn" x="2288" y="240">
   <point/>
  </object>
  <object id="185" name="EnemySpawn" x="1680" y="1360">
   <point/>
  </object>
  <object id="186" name="EnemySpawn" x="752" y="336">
   <point/>
  </object>
  <object id="187" name="EnemySpawn" x="528" y="2320">
   <point/>
  </object>
  <object id="188" name="EnemySpawn" x="2032" y="1072">
   <point/>
  </object>
  <object id="189" name="EnemySpawn" x="2032" y="1904">
   <point/>
  </object>
  <object id="190" name="EnemySpawn" x="1168" y="1904">
   <point/>
  </object>
  <object id="191" name="EnemySpawn" x="2992" y="976">
   <point/>
  </object>
  <object id="192" name="EnemySpawn" x="720" y="1232">
   <point/>
  </object>
  <object id="193" name="EnemySpawn" x="2544" y="560">
   <point/>
  </object>
  <object id="194" name="EnemySpawn" x="2544" y="1392">
   <point/>
  </object>
  <object id="195" name="EnemySpawn" x="3408" y="1328">
   <point/>
  </object>
  <object id="196" name="EnemySpawn" x="1456" y="560">
   <point/>
  </object>
  <object id="197" name="EnemySpawn" x="1104" y="1072">
   <point/>
  </object>
  <object id="198" name="EnemySpawn" x="3632" y="592">
   <point/>
  </object>
  <object id="199" name="EnemySpawn" x="1104" y="592">
   <point/>
  </object>
  <object id="200" name="EnemySpawn" x="2896" y="592">
   <point/>
  </object>
  <object id="201" name="EnemySpawn" x="3152" y="304">
   <point/>
  </object>
  <object id="202" name="EnemySpawn" x="3376" y="944">
   <point/>
  </object>
  <object id="203" name="EnemySpawn" x="656" y="1552">
   <point/>
  </object>
  <object id="204" name="EnemySpawn" x="368" y="1904">
   <point/>
  </object>
  <object id="205" name="EnemySpawn" x="560" y="592">
   <point/>
  </object>
  <object id="206" name="EnemySpawn" x="2288" y="784">
   <point/>
  </object>
  <object id="207" name="EnemySpawn" x="1776" y="880">
   <point/>
  </object>
 </objectgroup>
</map>
