<?xml version="1.0" encoding="UTF-8"?>
<map version="1.10" tiledversion="1.12.2" orientation="orthogonal" renderorder="right-down" width="68" height="40" tilewidth="32" tileheight="32" infinite="0" nextlayerid="5" nextobjectid="105">
 <imagelayer id="1" name="bg">
  <image source="desert_ruins.png" width="2176" height="1280"/>
 </imagelayer>
 <objectgroup id="2" name="Walls">
  <object id="1" name="Wall" x="0" y="0" width="2176" height="64"/>
  <object id="2" name="Wall" x="0" y="64" width="864" height="32"/>
  <object id="3" name="Wall" x="1312" y="64" width="864" height="32"/>
  <object id="4" name="Wall" x="0" y="96" width="672" height="32"/>
  <object id="5" name="Wall" x="1504" y="96" width="672" height="32"/>
  <object id="6" name="Wall" x="0" y="128" width="576" height="32"/>
  <object id="7" name="Wall" x="1600" y="128" width="576" height="32"/>
  <object id="8" name="Wall" x="0" y="160" width="160" height="288"/>
  <object id="9" name="Wall" x="256" y="160" width="256" height="32"/>
  <object id="10" name="Wall" x="1696" y="160" width="192" height="32"/>
  <object id="11" name="Wall" x="2016" y="160" width="160" height="256"/>
  <object id="12" name="Wall" x="288" y="192" width="192" height="32"/>
  <object id="13" name="Wall" x="640" y="288" width="128" height="128"/>
  <object id="14" name="Wall" x="608" y="320" width="32" height="64"/>
  <object id="15" name="Wall" x="768" y="320" width="32" height="64"/>
  <object id="16" name="Wall" x="2048" y="416" width="128" height="864"/>
  <object id="17" name="Wall" x="0" y="448" width="128" height="32"/>
  <object id="18" name="Wall" x="0" y="480" width="96" height="64"/>
  <object id="19" name="Wall" x="2016" y="512" width="32" height="256"/>
  <object id="20" name="Wall" x="0" y="544" width="64" height="736"/>
  <object id="21" name="Wall" x="1984" y="576" width="32" height="128"/>
  <object id="22" name="Wall" x="64" y="736" width="32" height="544"/>
  <object id="23" name="Wall" x="96" y="800" width="32" height="480"/>
  <object id="24" name="Wall" x="128" y="864" width="32" height="416"/>
  <object id="25" name="Wall" x="2016" y="864" width="32" height="416"/>
  <object id="26" name="Wall" x="352" y="1056" width="192" height="224"/>
  <object id="27" name="Wall" x="320" y="1088" width="32" height="192"/>
  <object id="28" name="Wall" x="544" y="1088" width="32" height="192"/>
  <object id="29" name="Wall" x="1568" y="1088" width="192" height="192"/>
  <object id="30" name="Wall" x="160" y="1120" width="160" height="160"/>
  <object id="31" name="Wall" x="576" y="1120" width="32" height="160"/>
  <object id="32" name="Wall" x="1504" y="1120" width="64" height="160"/>
  <object id="33" name="Wall" x="1760" y="1120" width="256" height="160"/>
  <object id="34" name="Wall" x="608" y="1152" width="64" height="128"/>
  <object id="35" name="Wall" x="1472" y="1152" width="32" height="128"/>
  <object id="36" name="Wall" x="672" y="1184" width="192" height="96"/>
  <object id="37" name="Wall" x="1312" y="1184" width="160" height="96"/>
  <object id="38" name="Wall" x="864" y="1216" width="96" height="64"/>
  <object id="39" name="Wall" x="1184" y="1216" width="128" height="64"/>
  <object id="40" name="wall" x="832" y="160" width="224" height="32"/>
  <object id="41" name="wall" x="1152" y="160" width="192" height="32"/>
  <object id="42" name="wall" x="832" y="192" width="32" height="128"/>
  <object id="43" name="wall" x="1312" y="192" width="32" height="64"/>
  <object id="44" name="wall" x="1312" y="352" width="32" height="96"/>
  <object id="45" name="wall" x="832" y="448" width="160" height="32"/>
  <object id="46" name="wall" x="1184" y="448" width="160" height="32"/>
  <object id="47" name="pillar" x="928" y="256" width="32" height="32"/>
  <object id="48" name="pillar" x="928" y="352" width="32" height="32"/>
  <object id="49" name="pillar" x="1216" y="256" width="32" height="32"/>
  <object id="50" name="pillar" x="1216" y="352" width="32" height="32"/>
  <object id="51" name="altar" x="1024" y="256" width="128" height="64"/>
  <object id="52" name="wall" x="224" y="576" width="192" height="32"/>
  <object id="53" name="wall" x="224" y="608" width="32" height="160"/>
  <object id="54" name="wall" x="384" y="928" width="224" height="32"/>
  <object id="55" name="wall" x="576" y="704" width="32" height="128"/>
  <object id="56" name="pillar" x="320" y="672" width="32" height="32"/>
  <object id="57" name="pillar" x="480" y="672" width="32" height="32"/>
  <object id="58" name="pillar" x="320" y="832" width="32" height="32"/>
  <object id="59" name="pillar" x="480" y="832" width="32" height="32"/>
  <object id="60" name="pillar" x="1568" y="256" width="32" height="32"/>
  <object id="61" name="pillar" x="1856" y="256" width="32" height="32"/>
  <object id="62" name="pillar" x="1568" y="384" width="32" height="32"/>
  <object id="63" name="pillar" x="1856" y="384" width="32" height="32"/>
  <object id="64" name="obelisk" x="1696" y="288" width="64" height="64"/>
  <object id="65" name="palm" x="1344" y="800" width="64" height="64"/>
  <object id="66" name="palm" x="1792" y="800" width="64" height="64"/>
  <object id="67" name="palm" x="1408" y="960" width="64" height="64"/>
  <object id="68" name="palm" x="1728" y="960" width="64" height="64"/>
  <object id="69" name="palm" x="1440" y="672" width="64" height="64"/>
  <object id="70" name="cactus" x="320" y="448" width="32" height="32"/>
  <object id="71" name="cactus" x="1248" y="1024" width="32" height="32"/>
  <object id="72" name="cactus" x="1120" y="544" width="32" height="32"/>
  <object id="73" name="cactus" x="224" y="384" width="32" height="32"/>
  <object id="74" name="cactus" x="1408" y="352" width="32" height="32"/>
  <object id="75" name="cactus" x="768" y="832" width="32" height="32"/>
  <object id="76" name="cactus" x="1920" y="960" width="32" height="32"/>
  <object id="77" name="cactus" x="1440" y="224" width="32" height="32"/>
  <object id="78" name="cactus" x="1760" y="544" width="32" height="32"/>
  <object id="79" name="rock" x="704" y="640" width="32" height="32"/>
  <object id="80" name="rock" x="864" y="896" width="32" height="32"/>
  <object id="81" name="rock" x="416" y="352" width="64" height="64"/>
  <object id="82" name="rock" x="704" y="512" width="32" height="32"/>
  <object id="83" name="rock" x="1632" y="608" width="32" height="32"/>
  <object id="84" name="rock" x="1792" y="672" width="32" height="32"/>
 </objectgroup>
 <objectgroup id="3" name="Pits">
  <object id="85" name="Water" x="1536" y="768" width="128" height="192"/>
  <object id="86" name="Water" x="1504" y="800" width="32" height="128"/>
  <object id="87" name="Water" x="1664" y="800" width="32" height="128"/>
  <object id="88" name="Water" x="1472" y="832" width="32" height="64"/>
  <object id="89" name="Water" x="1696" y="832" width="32" height="64"/>
 </objectgroup>
 <objectgroup id="4" name="SpawnLayers">
  <object id="90" name="Player Spawn" x="1072" y="1216">
   <point/>
  </object>
  <object id="91" name="EnemySpawn" x="1968" y="208">
   <point/>
  </object>
  <object id="92" name="EnemySpawn" x="208" y="208">
   <point/>
  </object>
  <object id="93" name="EnemySpawn" x="1072" y="112">
   <point/>
  </object>
  <object id="94" name="EnemySpawn" x="1936" y="1072">
   <point/>
  </object>
  <object id="95" name="EnemySpawn" x="208" y="1072">
   <point/>
  </object>
  <object id="96" name="EnemySpawn" x="1456" y="624">
   <point/>
  </object>
  <object id="97" name="EnemySpawn" x="784" y="656">
   <point/>
  </object>
  <object id="98" name="EnemySpawn" x="1520" y="176">
   <point/>
  </object>
  <object id="99" name="EnemySpawn" x="1488" y="1072">
   <point/>
  </object>
  <object id="100" name="EnemySpawn" x="656" y="240">
   <point/>
  </object>
  <object id="101" name="EnemySpawn" x="656" y="1072">
   <point/>
  </object>
  <object id="102" name="EnemySpawn" x="112" y="624">
   <point/>
  </object>
  <object id="103" name="EnemySpawn" x="1904" y="624">
   <point/>
  </object>
  <object id="104" name="EnemySpawn" x="1136" y="848">
   <point/>
  </object>
 </objectgroup>
</map>
