<?xml version="1.0" encoding="UTF-8"?>
<map version="1.10" tiledversion="1.12.2" orientation="orthogonal" renderorder="right-down" width="74" height="44" tilewidth="32" tileheight="32" infinite="0" nextlayerid="5" nextobjectid="109">
 <imagelayer id="1" name="bg">
  <image source="desert_pyramid.png" width="2368" height="1408"/>
 </imagelayer>
 <objectgroup id="2" name="Walls">
  <object id="1" name="Wall" x="0" y="0" width="2368" height="64"/>
  <object id="2" name="Wall" x="0" y="64" width="960" height="32"/>
  <object id="3" name="Wall" x="1408" y="64" width="960" height="32"/>
  <object id="4" name="Wall" x="0" y="96" width="832" height="32"/>
  <object id="5" name="Wall" x="1536" y="96" width="832" height="32"/>
  <object id="6" name="Wall" x="0" y="128" width="768" height="32"/>
  <object id="7" name="Wall" x="1568" y="128" width="800" height="32"/>
  <object id="8" name="Wall" x="0" y="160" width="160" height="352"/>
  <object id="9" name="Wall" x="2144" y="160" width="224" height="160"/>
  <object id="10" name="Wall" x="992" y="288" width="128" height="128"/>
  <object id="11" name="Wall" x="960" y="320" width="32" height="64"/>
  <object id="12" name="Wall" x="1120" y="320" width="32" height="64"/>
  <object id="13" name="Wall" x="2176" y="320" width="192" height="32"/>
  <object id="14" name="Wall" x="2208" y="352" width="160" height="160"/>
  <object id="15" name="Wall" x="0" y="512" width="128" height="96"/>
  <object id="16" name="Wall" x="2240" y="512" width="128" height="96"/>
  <object id="17" name="Wall" x="0" y="608" width="96" height="800"/>
  <object id="18" name="Wall" x="96" y="736" width="32" height="672"/>
  <object id="19" name="Wall" x="192" y="736" width="32" height="32"/>
  <object id="20" name="Wall" x="128" y="768" width="64" height="224"/>
  <object id="21" name="Wall" x="2240" y="832" width="128" height="576"/>
  <object id="22" name="Wall" x="1536" y="896" width="128" height="192"/>
  <object id="23" name="Wall" x="2208" y="896" width="32" height="512"/>
  <object id="24" name="Wall" x="1504" y="928" width="32" height="128"/>
  <object id="25" name="Wall" x="1664" y="928" width="32" height="128"/>
  <object id="26" name="Wall" x="1472" y="960" width="32" height="64"/>
  <object id="27" name="Wall" x="1696" y="960" width="32" height="64"/>
  <object id="28" name="Wall" x="128" y="992" width="32" height="416"/>
  <object id="29" name="Wall" x="2016" y="1152" width="192" height="256"/>
  <object id="30" name="Wall" x="1984" y="1184" width="32" height="224"/>
  <object id="31" name="Wall" x="288" y="1216" width="192" height="192"/>
  <object id="32" name="Wall" x="1952" y="1216" width="32" height="192"/>
  <object id="33" name="Wall" x="160" y="1248" width="128" height="160"/>
  <object id="34" name="Wall" x="480" y="1248" width="192" height="160"/>
  <object id="35" name="Wall" x="1152" y="1248" width="256" height="160"/>
  <object id="36" name="Wall" x="1696" y="1248" width="256" height="160"/>
  <object id="37" name="Wall" x="672" y="1280" width="96" height="128"/>
  <object id="38" name="Wall" x="1056" y="1280" width="96" height="128"/>
  <object id="39" name="Wall" x="1408" y="1280" width="96" height="128"/>
  <object id="40" name="Wall" x="1600" y="1280" width="96" height="128"/>
  <object id="41" name="Wall" x="768" y="1312" width="192" height="96"/>
  <object id="42" name="Wall" x="1024" y="1312" width="32" height="96"/>
  <object id="43" name="Wall" x="1504" y="1312" width="96" height="96"/>
  <object id="44" name="Wall" x="960" y="1344" width="64" height="64"/>
  <object id="45" name="pyramid" x="256" y="160" width="320" height="256"/>
  <object id="46" name="obelisk" x="640" y="384" width="64" height="64"/>
  <object id="47" name="obelisk" x="640" y="576" width="64" height="64"/>
  <object id="48" name="pillar" x="224" y="448" width="32" height="32"/>
  <object id="49" name="pillar" x="576" y="448" width="32" height="32"/>
  <object id="50" name="tent" x="1760" y="224" width="96" height="64"/>
  <object id="51" name="tent" x="1952" y="224" width="96" height="64"/>
  <object id="52" name="tent" x="2016" y="416" width="96" height="64"/>
  <object id="53" name="well" x="1728" y="384" width="64" height="64"/>
  <object id="54" name="campfire" x="1888" y="352" width="32" height="32"/>
  <object id="55" name="crate" x="2112" y="256" width="32" height="32"/>
  <object id="56" name="crate" x="2112" y="288" width="32" height="32"/>
  <object id="57" name="crate" x="1856" y="480" width="32" height="32"/>
  <object id="58" name="palm" x="1632" y="320" width="64" height="64"/>
  <object id="59" name="palm" x="1632" y="480" width="64" height="64"/>
  <object id="60" name="cactus" x="1056" y="160" width="32" height="32"/>
  <object id="61" name="cactus" x="1664" y="704" width="32" height="32"/>
  <object id="62" name="cactus" x="1120" y="672" width="32" height="32"/>
  <object id="63" name="cactus" x="1472" y="576" width="32" height="32"/>
  <object id="64" name="cactus" x="1184" y="1152" width="32" height="32"/>
  <object id="65" name="cactus" x="864" y="416" width="32" height="32"/>
  <object id="66" name="cactus" x="512" y="704" width="32" height="32"/>
  <object id="67" name="cactus" x="1280" y="832" width="32" height="32"/>
  <object id="68" name="cactus" x="1504" y="1152" width="32" height="32"/>
  <object id="69" name="cactus" x="1248" y="512" width="32" height="32"/>
  <object id="70" name="rock" x="1856" y="640" width="32" height="32"/>
  <object id="71" name="rock" x="1664" y="608" width="32" height="32"/>
  <object id="72" name="rock" x="1376" y="736" width="64" height="64"/>
  <object id="73" name="rock" x="1760" y="576" width="32" height="32"/>
  <object id="74" name="rock" x="928" y="1088" width="64" height="64"/>
  <object id="75" name="rock" x="768" y="224" width="64" height="64"/>
  <object id="76" name="bones" x="1088" y="512" width="64" height="32"/>
  <object id="77" name="bones" x="352" y="896" width="64" height="32"/>
  <object id="78" name="bones" x="2016" y="992" width="64" height="32"/>
  <object id="79" name="bones" x="960" y="640" width="64" height="32"/>
 </objectgroup>
 <objectgroup id="3" name="Pits">
  <object id="80" name="Quicksand" x="1312" y="192" width="128" height="128"/>
  <object id="81" name="Quicksand" x="1280" y="224" width="32" height="64"/>
  <object id="82" name="Quicksand" x="1440" y="224" width="32" height="64"/>
  <object id="83" name="Quicksand" x="224" y="640" width="64" height="128"/>
  <object id="84" name="Quicksand" x="192" y="672" width="32" height="64"/>
  <object id="85" name="Quicksand" x="288" y="672" width="32" height="64"/>
  <object id="86" name="Quicksand" x="1856" y="800" width="128" height="128"/>
  <object id="87" name="Quicksand" x="1824" y="832" width="32" height="64"/>
  <object id="88" name="Quicksand" x="1984" y="832" width="32" height="64"/>
  <object id="89" name="Quicksand" x="640" y="1056" width="128" height="128"/>
  <object id="90" name="Quicksand" x="608" y="1088" width="32" height="64"/>
  <object id="91" name="Quicksand" x="768" y="1088" width="32" height="64"/>
 </objectgroup>
 <objectgroup id="4" name="SpawnLayers">
  <object id="92" name="Player Spawn" x="2304" y="720">
   <point/>
  </object>
  <object id="93" name="EnemySpawn" x="144" y="656">
   <point/>
  </object>
  <object id="94" name="EnemySpawn" x="1232" y="112">
   <point/>
  </object>
  <object id="95" name="EnemySpawn" x="1104" y="1232">
   <point/>
  </object>
  <object id="96" name="EnemySpawn" x="1584" y="720">
   <point/>
  </object>
  <object id="97" name="EnemySpawn" x="816" y="624">
   <point/>
  </object>
  <object id="98" name="EnemySpawn" x="496" y="1168">
   <point/>
  </object>
  <object id="99" name="EnemySpawn" x="1904" y="208">
   <point/>
  </object>
  <object id="100" name="EnemySpawn" x="1904" y="1200">
   <point/>
  </object>
  <object id="101" name="EnemySpawn" x="624" y="208">
   <point/>
  </object>
  <object id="102" name="EnemySpawn" x="208" y="240">
   <point/>
  </object>
  <object id="103" name="EnemySpawn" x="1168" y="816">
   <point/>
  </object>
  <object id="104" name="EnemySpawn" x="1488" y="1104">
   <point/>
  </object>
  <object id="105" name="EnemySpawn" x="1552" y="336">
   <point/>
  </object>
  <object id="106" name="EnemySpawn" x="1936" y="592">
   <point/>
  </object>
  <object id="107" name="EnemySpawn" x="496" y="784">
   <point/>
  </object>
  <object id="108" name="EnemySpawn" x="816" y="1008">
   <point/>
  </object>
 </objectgroup>
</map>
