<?xml version="1.0" encoding="UTF-8"?>
<map version="1.10" tiledversion="1.12.2" orientation="orthogonal" renderorder="right-down" width="64" height="36" tilewidth="32" tileheight="32" infinite="0" nextlayerid="5" nextobjectid="113">
 <imagelayer id="1" name="bg">
  <image source="forest_hollow.png" width="2048" height="1152"/>
 </imagelayer>
 <objectgroup id="2" name="Walls">
  <object id="1" name="Wall" x="0" y="0" width="1664" height="64"/>
  <object id="2" name="Wall" x="1760" y="0" width="288" height="224"/>
  <object id="3" name="Wall" x="1664" y="32" width="32" height="32"/>
  <object id="4" name="Wall" x="0" y="64" width="1632" height="64"/>
  <object id="5" name="Wall" x="1728" y="64" width="32" height="96"/>
  <object id="6" name="Wall" x="0" y="128" width="256" height="32"/>
  <object id="7" name="Wall" x="384" y="128" width="1312" height="32"/>
  <object id="8" name="Wall" x="0" y="160" width="192" height="32"/>
  <object id="9" name="Wall" x="448" y="160" width="800" height="32"/>
  <object id="10" name="Wall" x="1568" y="160" width="128" height="32"/>
  <object id="11" name="Wall" x="0" y="192" width="160" height="288"/>
  <object id="12" name="Wall" x="480" y="192" width="672" height="32"/>
  <object id="13" name="Wall" x="1664" y="192" width="32" height="32"/>
  <object id="14" name="Wall" x="608" y="224" width="480" height="32"/>
  <object id="15" name="Wall" x="1792" y="224" width="256" height="64"/>
  <object id="16" name="Wall" x="704" y="256" width="352" height="32"/>
  <object id="17" name="Wall" x="1760" y="256" width="32" height="32"/>
  <object id="18" name="Wall" x="736" y="288" width="320" height="32"/>
  <object id="19" name="Wall" x="1824" y="288" width="224" height="32"/>
  <object id="20" name="Wall" x="160" y="320" width="32" height="96"/>
  <object id="21" name="Wall" x="800" y="320" width="224" height="32"/>
  <object id="22" name="Wall" x="1856" y="320" width="192" height="32"/>
  <object id="23" name="Wall" x="832" y="352" width="160" height="32"/>
  <object id="24" name="Wall" x="1888" y="352" width="160" height="64"/>
  <object id="25" name="Wall" x="1856" y="384" width="32" height="32"/>
  <object id="26" name="Wall" x="1920" y="416" width="128" height="64"/>
  <object id="27" name="Wall" x="0" y="480" width="128" height="32"/>
  <object id="28" name="Wall" x="1952" y="480" width="96" height="320"/>
  <object id="29" name="Wall" x="1920" y="672" width="32" height="96"/>
  <object id="30" name="Wall" x="0" y="704" width="160" height="448"/>
  <object id="31" name="Wall" x="160" y="736" width="32" height="416"/>
  <object id="32" name="Wall" x="1888" y="736" width="32" height="32"/>
  <object id="33" name="Wall" x="192" y="800" width="32" height="352"/>
  <object id="34" name="Wall" x="800" y="800" width="160" height="352"/>
  <object id="35" name="Wall" x="1984" y="800" width="64" height="352"/>
  <object id="36" name="Wall" x="224" y="832" width="64" height="320"/>
  <object id="37" name="Wall" x="736" y="832" width="64" height="320"/>
  <object id="38" name="Wall" x="960" y="832" width="32" height="320"/>
  <object id="39" name="Wall" x="288" y="864" width="32" height="288"/>
  <object id="40" name="Wall" x="704" y="864" width="32" height="288"/>
  <object id="41" name="Wall" x="992" y="864" width="64" height="288"/>
  <object id="42" name="Wall" x="320" y="896" width="96" height="256"/>
  <object id="43" name="Wall" x="608" y="896" width="96" height="256"/>
  <object id="44" name="Wall" x="1056" y="896" width="32" height="256"/>
  <object id="45" name="Wall" x="416" y="928" width="192" height="224"/>
  <object id="46" name="Wall" x="1088" y="928" width="160" height="224"/>
  <object id="47" name="Wall" x="1664" y="928" width="32" height="224"/>
  <object id="48" name="Wall" x="1952" y="928" width="32" height="224"/>
  <object id="49" name="Wall" x="1568" y="960" width="96" height="192"/>
  <object id="50" name="Wall" x="1696" y="960" width="64" height="192"/>
  <object id="51" name="Wall" x="1888" y="960" width="64" height="192"/>
  <object id="52" name="Wall" x="1248" y="992" width="320" height="160"/>
  <object id="53" name="Wall" x="1760" y="992" width="128" height="160"/>
  <object id="54" name="stump" x="1376" y="576" width="96" height="64"/>
  <object id="55" name="menhir" x="1632" y="576" width="32" height="64"/>
  <object id="56" name="menhir" x="1568" y="704" width="32" height="64"/>
  <object id="57" name="menhir" x="1408" y="736" width="32" height="64"/>
  <object id="58" name="menhir" x="1248" y="704" width="32" height="64"/>
  <object id="59" name="menhir" x="1248" y="448" width="32" height="64"/>
  <object id="60" name="menhir" x="1408" y="416" width="32" height="64"/>
  <object id="61" name="menhir" x="1568" y="448" width="32" height="64"/>
  <object id="62" name="log" x="288" y="768" width="160" height="32"/>
  <object id="63" name="log" x="1632" y="800" width="128" height="32"/>
  <object id="64" name="old_tree" x="544" y="320" width="96" height="96"/>
  <object id="65" name="old_tree" x="1152" y="832" width="96" height="96"/>
  <object id="66" name="stump" x="1824" y="864" width="64" height="64"/>
  <object id="67" name="boulder" x="768" y="448" width="64" height="64"/>
  <object id="68" name="tree" x="1024" y="672" width="64" height="64"/>
  <object id="69" name="tree" x="512" y="480" width="64" height="64"/>
  <object id="70" name="tree" x="384" y="448" width="64" height="64"/>
  <object id="71" name="tree" x="1312" y="256" width="64" height="64"/>
  <object id="72" name="tree" x="1760" y="512" width="64" height="64"/>
  <object id="73" name="autumn_tree" x="288" y="224" width="64" height="64"/>
  <object id="74" name="autumn_tree" x="544" y="704" width="64" height="64"/>
  <object id="75" name="autumn_tree" x="256" y="352" width="64" height="64"/>
  <object id="76" name="stump" x="1376" y="864" width="32" height="32"/>
  <object id="77" name="stump" x="992" y="512" width="32" height="32"/>
  <object id="78" name="stump" x="1216" y="288" width="32" height="32"/>
  <object id="79" name="boulder" x="896" y="512" width="32" height="32"/>
  <object id="80" name="boulder" x="1728" y="672" width="64" height="32"/>
  <object id="81" name="boulder" x="736" y="672" width="32" height="32"/>
  <object id="82" name="fern" x="1472" y="288" width="32" height="32"/>
  <object id="83" name="fern" x="640" y="480" width="32" height="32"/>
  <object id="84" name="fern" x="448" y="608" width="32" height="32"/>
  <object id="85" name="fern" x="1472" y="864" width="32" height="32"/>
  <object id="86" name="fern" x="448" y="288" width="32" height="32"/>
  <object id="87" name="fern" x="832" y="640" width="32" height="32"/>
 </objectgroup>
 <objectgroup id="3" name="Pits">
  <object id="88" name="Water" x="1664" y="0" width="96" height="32"/>
  <object id="89" name="Water" x="1696" y="32" width="64" height="32"/>
  <object id="90" name="Water" x="1632" y="64" width="96" height="64"/>
  <object id="91" name="Water" x="1696" y="128" width="32" height="288"/>
  <object id="92" name="Water" x="1728" y="160" width="32" height="256"/>
  <object id="93" name="Water" x="1664" y="224" width="32" height="192"/>
  <object id="94" name="Water" x="1760" y="224" width="32" height="32"/>
  <object id="95" name="Water" x="1632" y="256" width="32" height="128"/>
  <object id="96" name="Water" x="1600" y="288" width="32" height="64"/>
  <object id="97" name="Water" x="1760" y="288" width="64" height="128"/>
  <object id="98" name="Water" x="1824" y="320" width="32" height="96"/>
  <object id="99" name="Water" x="1856" y="352" width="32" height="32"/>
 </objectgroup>
 <objectgroup id="4" name="SpawnLayers">
  <object id="100" name="Player Spawn" x="80" y="608">
   <point/>
  </object>
  <object id="101" name="EnemySpawn" x="1936" y="880">
   <point/>
  </object>
  <object id="102" name="EnemySpawn" x="1104" y="304">
   <point/>
  </object>
  <object id="103" name="EnemySpawn" x="1296" y="944">
   <point/>
  </object>
  <object id="104" name="EnemySpawn" x="688" y="784">
   <point/>
  </object>
  <object id="105" name="EnemySpawn" x="528" y="272">
   <point/>
  </object>
  <object id="106" name="EnemySpawn" x="1648" y="464">
   <point/>
  </object>
  <object id="107" name="EnemySpawn" x="1296" y="592">
   <point/>
  </object>
  <object id="108" name="EnemySpawn" x="1424" y="208">
   <point/>
  </object>
  <object id="109" name="EnemySpawn" x="368" y="848">
   <point/>
  </object>
  <object id="110" name="EnemySpawn" x="208" y="240">
   <point/>
  </object>
  <object id="111" name="EnemySpawn" x="976" y="624">
   <point/>
  </object>
  <object id="112" name="EnemySpawn" x="1616" y="912">
   <point/>
  </object>
 </objectgroup>
</map>
