<?xml version="1.0" encoding="UTF-8"?>
<map version="1.10" tiledversion="1.12.2" orientation="orthogonal" renderorder="right-down" width="92" height="56" tilewidth="32" tileheight="32" infinite="0" nextlayerid="5" nextobjectid="205">
 <imagelayer id="1" name="bg">
  <image source="frozen_cavern.png" width="2944" height="1792"/>
 </imagelayer>
 <objectgroup id="2" name="Walls">
  <object id="1" name="Wall" x="0" y="0" width="2944" height="64"/>
  <object id="2" name="Wall" x="0" y="64" width="1376" height="32"/>
  <object id="3" name="Wall" x="1568" y="64" width="1376" height="32"/>
  <object id="4" name="Wall" x="0" y="96" width="1280" height="32"/>
  <object id="5" name="Wall" x="1664" y="96" width="1280" height="32"/>
  <object id="6" name="Wall" x="0" y="128" width="1248" height="32"/>
  <object id="7" name="Wall" x="1696" y="128" width="1248" height="32"/>
  <object id="8" name="Wall" x="0" y="160" width="1216" height="32"/>
  <object id="9" name="Wall" x="1728" y="160" width="512" height="32"/>
  <object id="10" name="Wall" x="2496" y="160" width="448" height="32"/>
  <object id="11" name="Wall" x="0" y="192" width="448" height="32"/>
  <object id="12" name="Wall" x="704" y="192" width="512" height="32"/>
  <object id="13" name="Wall" x="1728" y="192" width="416" height="32"/>
  <object id="14" name="Wall" x="2592" y="192" width="352" height="32"/>
  <object id="15" name="Wall" x="0" y="224" width="352" height="32"/>
  <object id="16" name="Wall" x="800" y="224" width="416" height="32"/>
  <object id="17" name="Wall" x="1728" y="224" width="352" height="32"/>
  <object id="18" name="Wall" x="2656" y="224" width="288" height="32"/>
  <object id="19" name="Wall" x="0" y="256" width="288" height="32"/>
  <object id="20" name="Wall" x="864" y="256" width="352" height="32"/>
  <object id="21" name="Wall" x="1728" y="256" width="320" height="32"/>
  <object id="22" name="Wall" x="2688" y="256" width="256" height="32"/>
  <object id="23" name="Wall" x="0" y="288" width="256" height="32"/>
  <object id="24" name="Wall" x="896" y="288" width="352" height="32"/>
  <object id="25" name="Wall" x="1696" y="288" width="320" height="64"/>
  <object id="26" name="Wall" x="2720" y="288" width="224" height="64"/>
  <object id="27" name="Wall" x="0" y="320" width="224" height="64"/>
  <object id="28" name="Wall" x="928" y="320" width="352" height="64"/>
  <object id="29" name="Wall" x="1664" y="320" width="32" height="320"/>
  <object id="30" name="Wall" x="1280" y="352" width="96" height="256"/>
  <object id="31" name="Wall" x="1568" y="352" width="96" height="256"/>
  <object id="32" name="Wall" x="1696" y="352" width="288" height="288"/>
  <object id="33" name="Wall" x="2752" y="352" width="192" height="1440"/>
  <object id="34" name="Wall" x="0" y="384" width="192" height="1408"/>
  <object id="35" name="Wall" x="960" y="384" width="320" height="256"/>
  <object id="36" name="Wall" x="1376" y="384" width="32" height="224"/>
  <object id="37" name="Wall" x="1536" y="384" width="32" height="224"/>
  <object id="38" name="Wall" x="1984" y="480" width="32" height="224"/>
  <object id="39" name="Wall" x="2720" y="480" width="32" height="704"/>
  <object id="40" name="Wall" x="192" y="512" width="32" height="1280"/>
  <object id="41" name="Wall" x="928" y="512" width="32" height="128"/>
  <object id="42" name="Wall" x="2016" y="544" width="32" height="128"/>
  <object id="43" name="Wall" x="2688" y="544" width="32" height="576"/>
  <object id="44" name="Wall" x="224" y="576" width="32" height="704"/>
  <object id="45" name="Wall" x="896" y="576" width="32" height="32"/>
  <object id="46" name="Wall" x="2048" y="576" width="32" height="32"/>
  <object id="47" name="Wall" x="2656" y="576" width="32" height="512"/>
  <object id="48" name="Wall" x="256" y="608" width="32" height="608"/>
  <object id="49" name="Wall" x="1280" y="608" width="32" height="32"/>
  <object id="50" name="Wall" x="1632" y="608" width="32" height="32"/>
  <object id="51" name="Wall" x="2592" y="608" width="64" height="448"/>
  <object id="52" name="Wall" x="288" y="640" width="64" height="512"/>
  <object id="53" name="Wall" x="960" y="640" width="256" height="32"/>
  <object id="54" name="Wall" x="1728" y="640" width="256" height="32"/>
  <object id="55" name="Wall" x="2528" y="640" width="64" height="32"/>
  <object id="56" name="Wall" x="352" y="672" width="64" height="256"/>
  <object id="57" name="Wall" x="704" y="672" width="96" height="448"/>
  <object id="58" name="Wall" x="992" y="672" width="160" height="32"/>
  <object id="59" name="Wall" x="1792" y="672" width="192" height="32"/>
  <object id="60" name="Wall" x="2208" y="672" width="224" height="320"/>
  <object id="61" name="Wall" x="2560" y="672" width="32" height="32"/>
  <object id="62" name="Wall" x="544" y="704" width="160" height="384"/>
  <object id="63" name="Wall" x="800" y="704" width="32" height="448"/>
  <object id="64" name="Wall" x="1056" y="704" width="32" height="32"/>
  <object id="65" name="Wall" x="1856" y="704" width="128" height="32"/>
  <object id="66" name="Wall" x="2176" y="704" width="32" height="416"/>
  <object id="67" name="Wall" x="832" y="736" width="32" height="448"/>
  <object id="68" name="Wall" x="1888" y="736" width="32" height="64"/>
  <object id="69" name="Wall" x="2144" y="736" width="32" height="384"/>
  <object id="70" name="Wall" x="2432" y="736" width="32" height="160"/>
  <object id="71" name="Wall" x="864" y="768" width="64" height="448"/>
  <object id="72" name="Wall" x="2112" y="768" width="32" height="416"/>
  <object id="73" name="Wall" x="928" y="800" width="32" height="608"/>
  <object id="74" name="Wall" x="2048" y="800" width="64" height="576"/>
  <object id="75" name="Wall" x="960" y="832" width="32" height="576"/>
  <object id="76" name="Wall" x="2016" y="832" width="32" height="576"/>
  <object id="77" name="Wall" x="1984" y="864" width="32" height="576"/>
  <object id="78" name="Wall" x="2560" y="864" width="32" height="160"/>
  <object id="79" name="Wall" x="512" y="896" width="32" height="192"/>
  <object id="80" name="Wall" x="1952" y="896" width="32" height="544"/>
  <object id="81" name="Wall" x="352" y="928" width="32" height="224"/>
  <object id="82" name="Wall" x="992" y="960" width="32" height="448"/>
  <object id="83" name="Wall" x="1920" y="960" width="32" height="480"/>
  <object id="84" name="Wall" x="2208" y="992" width="128" height="32"/>
  <object id="85" name="Wall" x="1024" y="1024" width="32" height="416"/>
  <object id="86" name="Wall" x="1888" y="1024" width="32" height="448"/>
  <object id="87" name="Wall" x="2208" y="1024" width="64" height="32"/>
  <object id="88" name="Wall" x="1056" y="1056" width="32" height="384"/>
  <object id="89" name="Wall" x="1856" y="1056" width="32" height="416"/>
  <object id="90" name="Wall" x="1088" y="1088" width="64" height="352"/>
  <object id="91" name="Wall" x="1792" y="1088" width="64" height="384"/>
  <object id="92" name="Wall" x="768" y="1120" width="32" height="32"/>
  <object id="93" name="Wall" x="1152" y="1120" width="64" height="352"/>
  <object id="94" name="Wall" x="1728" y="1120" width="64" height="352"/>
  <object id="95" name="Wall" x="288" y="1152" width="32" height="32"/>
  <object id="96" name="Wall" x="1216" y="1152" width="96" height="224"/>
  <object id="97" name="Wall" x="1632" y="1152" width="96" height="224"/>
  <object id="98" name="Wall" x="1312" y="1184" width="96" height="32"/>
  <object id="99" name="Wall" x="1504" y="1184" width="128" height="160"/>
  <object id="100" name="Wall" x="896" y="1216" width="32" height="64"/>
  <object id="101" name="Wall" x="1312" y="1216" width="64" height="160"/>
  <object id="102" name="Wall" x="1568" y="1344" width="64" height="32"/>
  <object id="103" name="Wall" x="1216" y="1376" width="64" height="32"/>
  <object id="104" name="Wall" x="1664" y="1376" width="64" height="32"/>
  <object id="105" name="Wall" x="2048" y="1376" width="32" height="32"/>
  <object id="106" name="Wall" x="2720" y="1376" width="32" height="416"/>
  <object id="107" name="Wall" x="224" y="1408" width="32" height="384"/>
  <object id="108" name="Wall" x="1216" y="1408" width="32" height="32"/>
  <object id="109" name="Wall" x="1696" y="1408" width="32" height="32"/>
  <object id="110" name="Wall" x="2688" y="1440" width="32" height="352"/>
  <object id="111" name="Wall" x="256" y="1472" width="32" height="320"/>
  <object id="112" name="Wall" x="1760" y="1472" width="32" height="32"/>
  <object id="113" name="Wall" x="2176" y="1472" width="32" height="320"/>
  <object id="114" name="Wall" x="2656" y="1472" width="32" height="320"/>
  <object id="115" name="Wall" x="288" y="1504" width="32" height="288"/>
  <object id="116" name="Wall" x="832" y="1504" width="128" height="288"/>
  <object id="117" name="Wall" x="2080" y="1504" width="96" height="288"/>
  <object id="118" name="Wall" x="2208" y="1504" width="64" height="288"/>
  <object id="119" name="Wall" x="2592" y="1504" width="64" height="288"/>
  <object id="120" name="Wall" x="320" y="1536" width="64" height="256"/>
  <object id="121" name="Wall" x="768" y="1536" width="64" height="256"/>
  <object id="122" name="Wall" x="960" y="1536" width="128" height="256"/>
  <object id="123" name="Wall" x="1952" y="1536" width="128" height="256"/>
  <object id="124" name="Wall" x="2272" y="1536" width="64" height="256"/>
  <object id="125" name="Wall" x="2528" y="1536" width="64" height="256"/>
  <object id="126" name="Wall" x="384" y="1568" width="64" height="224"/>
  <object id="127" name="Wall" x="704" y="1568" width="64" height="224"/>
  <object id="128" name="Wall" x="1088" y="1568" width="96" height="224"/>
  <object id="129" name="Wall" x="1856" y="1568" width="96" height="224"/>
  <object id="130" name="Wall" x="2336" y="1568" width="192" height="224"/>
  <object id="131" name="Wall" x="448" y="1600" width="256" height="192"/>
  <object id="132" name="Wall" x="1184" y="1600" width="32" height="192"/>
  <object id="133" name="Wall" x="1760" y="1600" width="96" height="192"/>
  <object id="134" name="Wall" x="1216" y="1632" width="32" height="160"/>
  <object id="135" name="Wall" x="1696" y="1632" width="64" height="160"/>
  <object id="136" name="Wall" x="1248" y="1664" width="32" height="128"/>
  <object id="137" name="Wall" x="1664" y="1664" width="32" height="128"/>
  <object id="138" name="Wall" x="1280" y="1696" width="96" height="96"/>
  <object id="139" name="Wall" x="1600" y="1696" width="64" height="96"/>
  <object id="140" name="crystal" x="1440" y="64" width="128" height="96"/>
  <object id="141" name="stalagmite" x="1312" y="224" width="32" height="32"/>
  <object id="142" name="stalagmite" x="1632" y="224" width="32" height="32"/>
  <object id="143" name="stalagmite" x="1088" y="800" width="64" height="64"/>
  <object id="144" name="stalagmite" x="1856" y="800" width="64" height="64"/>
  <object id="145" name="stalagmite" x="1152" y="1056" width="64" height="64"/>
  <object id="146" name="crystal" x="448" y="352" width="32" height="32"/>
  <object id="147" name="crystal" x="2528" y="320" width="64" height="64"/>
  <object id="148" name="crystal" x="384" y="544" width="32" height="32"/>
  <object id="149" name="crystal" x="416" y="1280" width="64" height="64"/>
  <object id="150" name="crystal" x="1344" y="736" width="32" height="32"/>
  <object id="151" name="crystal" x="2208" y="288" width="32" height="32"/>
  <object id="152" name="crystal" x="1472" y="672" width="64" height="64"/>
  <object id="153" name="crystal" x="1632" y="768" width="32" height="32"/>
  <object id="154" name="crystal" x="576" y="1504" width="32" height="32"/>
  <object id="155" name="crystal" x="832" y="1344" width="32" height="32"/>
  <object id="156" name="stalagmite" x="2176" y="512" width="32" height="32"/>
  <object id="157" name="stalagmite" x="2144" y="416" width="32" height="32"/>
  <object id="158" name="stalagmite" x="576" y="1248" width="64" height="64"/>
  <object id="159" name="stalagmite" x="576" y="576" width="64" height="64"/>
  <object id="160" name="stalagmite" x="2560" y="512" width="32" height="32"/>
  <object id="161" name="stalagmite" x="1760" y="832" width="32" height="32"/>
  <object id="162" name="stalagmite" x="1120" y="928" width="32" height="32"/>
  <object id="163" name="stalagmite" x="1312" y="1504" width="64" height="64"/>
  <object id="164" name="stalagmite" x="2528" y="1152" width="32" height="32"/>
  <object id="165" name="stalagmite" x="1440" y="224" width="64" height="64"/>
  <object id="166" name="stalagmite" x="2368" y="1408" width="64" height="64"/>
  <object id="167" name="stalagmite" x="704" y="1248" width="32" height="32"/>
  <object id="168" name="ice_block" x="1248" y="800" width="32" height="32"/>
  <object id="169" name="ice_block" x="2336" y="544" width="32" height="32"/>
  <object id="170" name="ice_block" x="2400" y="320" width="64" height="32"/>
  <object id="171" name="ice_block" x="2400" y="416" width="32" height="32"/>
  <object id="172" name="ice_block" x="2336" y="1088" width="32" height="32"/>
 </objectgroup>
 <objectgroup id="3" name="Pits">
  <object id="173" name="Chasm" x="640" y="384" width="128" height="128"/>
  <object id="174" name="Chasm" x="608" y="416" width="32" height="64"/>
  <object id="175" name="Chasm" x="768" y="416" width="32" height="64"/>
  <object id="176" name="Chasm" x="2208" y="1120" width="64" height="64"/>
  <object id="177" name="Chasm" x="2240" y="1184" width="160" height="32"/>
  <object id="178" name="Chasm" x="2304" y="1216" width="32" height="32"/>
  <object id="179" name="Chasm" x="2528" y="1248" width="64" height="192"/>
  <object id="180" name="Chasm" x="2592" y="1280" width="32" height="128"/>
  <object id="181" name="Chasm" x="2496" y="1344" width="32" height="64"/>
 </objectgroup>
 <objectgroup id="4" name="SpawnLayers">
  <object id="182" name="Player Spawn" x="1488" y="1728">
   <point/>
  </object>
  <object id="183" name="EnemySpawn" x="2608" y="272">
   <point/>
  </object>
  <object id="184" name="EnemySpawn" x="336" y="304">
   <point/>
  </object>
  <object id="185" name="EnemySpawn" x="1488" y="560">
   <point/>
  </object>
  <object id="186" name="EnemySpawn" x="368" y="1456">
   <point/>
  </object>
  <object id="187" name="EnemySpawn" x="2672" y="1392">
   <point/>
  </object>
  <object id="188" name="EnemySpawn" x="2128" y="688">
   <point/>
  </object>
  <object id="189" name="EnemySpawn" x="848" y="656">
   <point/>
  </object>
  <object id="190" name="EnemySpawn" x="2064" y="1456">
   <point/>
  </object>
  <object id="191" name="EnemySpawn" x="1360" y="1136">
   <point/>
  </object>
  <object id="192" name="EnemySpawn" x="912" y="1456">
   <point/>
  </object>
  <object id="193" name="EnemySpawn" x="464" y="976">
   <point/>
  </object>
  <object id="194" name="EnemySpawn" x="2512" y="944">
   <point/>
  </object>
  <object id="195" name="EnemySpawn" x="1808" y="1040">
   <point/>
  </object>
  <object id="196" name="EnemySpawn" x="1328" y="144">
   <point/>
  </object>
  <object id="197" name="EnemySpawn" x="2192" y="240">
   <point/>
  </object>
  <object id="198" name="EnemySpawn" x="752" y="272">
   <point/>
  </object>
  <object id="199" name="EnemySpawn" x="1200" y="784">
   <point/>
  </object>
  <object id="200" name="EnemySpawn" x="496" y="624">
   <point/>
  </object>
  <object id="201" name="EnemySpawn" x="2480" y="592">
   <point/>
  </object>
  <object id="202" name="EnemySpawn" x="1616" y="1424">
   <point/>
  </object>
  <object id="203" name="EnemySpawn" x="2352" y="1296">
   <point/>
  </object>
  <object id="204" name="EnemySpawn" x="1264" y="1488">
   <point/>
  </object>
 </objectgroup>
</map>
