<?xml version="1.0" encoding="UTF-8"?>
<map version="1.10" tiledversion="1.12.2" orientation="orthogonal" renderorder="right-down" width="104" height="62" tilewidth="32" tileheight="32" infinite="0" nextlayerid="4" nextobjectid="2">
 <imagelayer id="1" name="bg">
  <image source="graveyard.png" width="3328" height="1984"/>
 </imagelayer>
 <objectgroup id="2" name="Walls"/>
 <objectgroup id="3" name="SpawnLayers">
  <object id="1" name="Player Spawn" x="1680" y="1920">
   <point/>
  </object>
 </objectgroup>
</map>
