<?xml version="1.0" encoding="UTF-8"?>
<map version="1.10" tiledversion="1.12.2" orientation="orthogonal" renderorder="right-down" width="116" height="70" tilewidth="32" tileheight="32" infinite="0" nextlayerid="5" nextobjectid="246">
 <imagelayer id="1" name="bg">
  <image source="volcanic_caldera.png" width="3712" height="2240"/>
 </imagelayer>
 <objectgroup id="2" name="Walls">
  <object id="1" name="Wall" x="0" y="0" width="3712" height="32"/>
  <object id="2" name="Wall" x="0" y="32" width="1536" height="32"/>
  <object id="3" name="Wall" x="2176" y="32" width="1536" height="32"/>
  <object id="4" name="Wall" x="0" y="64" width="1344" height="64"/>
  <object id="5" name="Wall" x="2400" y="64" width="1312" height="32"/>
  <object id="6" name="Wall" x="2528" y="96" width="1184" height="32"/>
  <object id="7" name="Wall" x="0" y="128" width="1312" height="32"/>
  <object id="8" name="Wall" x="2656" y="128" width="1056" height="32"/>
  <object id="9" name="Wall" x="0" y="160" width="288" height="32"/>
  <object id="10" name="Wall" x="1056" y="160" width="192" height="32"/>
  <object id="11" name="Wall" x="3424" y="160" width="288" height="32"/>
  <object id="12" name="Wall" x="0" y="192" width="256" height="32"/>
  <object id="13" name="Wall" x="3456" y="192" width="256" height="32"/>
  <object id="14" name="Wall" x="0" y="224" width="224" height="32"/>
  <object id="15" name="Wall" x="3488" y="224" width="224" height="32"/>
  <object id="16" name="Wall" x="0" y="256" width="192" height="32"/>
  <object id="17" name="Wall" x="3520" y="256" width="192" height="32"/>
  <object id="18" name="Wall" x="0" y="288" width="160" height="448"/>
  <object id="19" name="Wall" x="3552" y="288" width="160" height="448"/>
  <object id="20" name="Wall" x="0" y="736" width="128" height="64"/>
  <object id="21" name="Wall" x="3584" y="736" width="128" height="64"/>
  <object id="22" name="Wall" x="0" y="800" width="96" height="64"/>
  <object id="23" name="Wall" x="3616" y="800" width="96" height="64"/>
  <object id="24" name="Wall" x="0" y="864" width="64" height="128"/>
  <object id="25" name="Wall" x="3648" y="864" width="64" height="128"/>
  <object id="26" name="Wall" x="0" y="992" width="32" height="1248"/>
  <object id="27" name="Wall" x="3680" y="992" width="32" height="1248"/>
  <object id="28" name="Wall" x="32" y="1248" width="32" height="992"/>
  <object id="29" name="Wall" x="3648" y="1248" width="32" height="992"/>
  <object id="30" name="Wall" x="3584" y="1280" width="64" height="960"/>
  <object id="31" name="Wall" x="3552" y="1312" width="32" height="928"/>
  <object id="32" name="Wall" x="3520" y="1344" width="32" height="192"/>
  <object id="33" name="Wall" x="64" y="1376" width="32" height="864"/>
  <object id="34" name="Wall" x="96" y="1440" width="96" height="32"/>
  <object id="35" name="Wall" x="96" y="1472" width="64" height="768"/>
  <object id="36" name="Wall" x="160" y="1952" width="32" height="288"/>
  <object id="37" name="Wall" x="3520" y="1952" width="32" height="288"/>
  <object id="38" name="Wall" x="192" y="1984" width="64" height="256"/>
  <object id="39" name="Wall" x="3456" y="1984" width="64" height="256"/>
  <object id="40" name="Wall" x="256" y="2016" width="32" height="224"/>
  <object id="41" name="Wall" x="3424" y="2016" width="32" height="224"/>
  <object id="42" name="Wall" x="288" y="2048" width="32" height="192"/>
  <object id="43" name="Wall" x="2560" y="2048" width="256" height="192"/>
  <object id="44" name="Wall" x="3392" y="2048" width="32" height="192"/>
  <object id="45" name="Wall" x="320" y="2080" width="32" height="160"/>
  <object id="46" name="Wall" x="2496" y="2080" width="64" height="160"/>
  <object id="47" name="Wall" x="2816" y="2080" width="64" height="160"/>
  <object id="48" name="Wall" x="3360" y="2080" width="32" height="160"/>
  <object id="49" name="Wall" x="352" y="2112" width="832" height="128"/>
  <object id="50" name="Wall" x="2464" y="2112" width="32" height="128"/>
  <object id="51" name="Wall" x="2880" y="2112" width="480" height="128"/>
  <object id="52" name="Wall" x="1184" y="2144" width="128" height="96"/>
  <object id="53" name="Wall" x="2400" y="2144" width="64" height="96"/>
  <object id="54" name="Wall" x="1312" y="2176" width="224" height="64"/>
  <object id="55" name="Wall" x="2176" y="2176" width="224" height="64"/>
  <object id="56" name="Wall" x="1536" y="2208" width="224" height="32"/>
  <object id="57" name="Wall" x="1984" y="2208" width="192" height="32"/>
  <object id="58" name="brazier" x="1568" y="896" width="32" height="32"/>
  <object id="59" name="brazier" x="2112" y="896" width="32" height="32"/>
  <object id="60" name="brazier" x="1568" y="1184" width="32" height="32"/>
  <object id="61" name="brazier" x="2112" y="1184" width="32" height="32"/>
  <object id="62" name="spike" x="1248" y="1760" width="32" height="32"/>
  <object id="63" name="spike" x="1024" y="384" width="64" height="64"/>
  <object id="64" name="spike" x="3200" y="256" width="32" height="32"/>
  <object id="65" name="spike" x="2048" y="96" width="64" height="64"/>
  <object id="66" name="spike" x="448" y="1568" width="64" height="64"/>
  <object id="67" name="spike" x="1280" y="1952" width="64" height="64"/>
  <object id="68" name="spike" x="288" y="1248" width="64" height="64"/>
  <object id="69" name="spike" x="2496" y="480" width="32" height="32"/>
  <object id="70" name="spike" x="1920" y="1696" width="64" height="64"/>
  <object id="71" name="spike" x="2656" y="1600" width="32" height="32"/>
  <object id="72" name="spike" x="704" y="1152" width="64" height="64"/>
  <object id="73" name="spike" x="3360" y="928" width="64" height="64"/>
  <object id="74" name="spike" x="3168" y="352" width="64" height="64"/>
  <object id="75" name="spike" x="2272" y="1952" width="32" height="32"/>
  <object id="76" name="spike" x="864" y="384" width="64" height="64"/>
  <object id="77" name="spike" x="3072" y="672" width="64" height="64"/>
  <object id="78" name="boulder" x="672" y="864" width="64" height="64"/>
  <object id="79" name="boulder" x="576" y="992" width="96" height="64"/>
  <object id="80" name="boulder" x="2400" y="1600" width="32" height="32"/>
  <object id="81" name="boulder" x="3488" y="1088" width="96" height="64"/>
  <object id="82" name="boulder" x="2944" y="1984" width="64" height="64"/>
  <object id="83" name="boulder" x="2944" y="1472" width="96" height="64"/>
  <object id="84" name="boulder" x="800" y="832" width="32" height="32"/>
  <object id="85" name="boulder" x="1088" y="1472" width="96" height="64"/>
  <object id="86" name="boulder" x="480" y="1216" width="64" height="64"/>
  <object id="87" name="boulder" x="256" y="1536" width="64" height="64"/>
  <object id="88" name="vent" x="1280" y="1568" width="64" height="64"/>
  <object id="89" name="vent" x="2336" y="1696" width="64" height="64"/>
  <object id="90" name="vent" x="2176" y="160" width="64" height="64"/>
  <object id="91" name="vent" x="2144" y="2048" width="64" height="64"/>
  <object id="92" name="vent" x="736" y="1632" width="64" height="64"/>
  <object id="93" name="vent" x="1728" y="1600" width="64" height="64"/>
 </objectgroup>
 <objectgroup id="3" name="Pits">
  <object id="94" name="Lava" x="1792" y="32" width="128" height="64"/>
  <object id="95" name="Lava" x="1760" y="96" width="128" height="128"/>
  <object id="96" name="Lava" x="1728" y="224" width="128" height="32"/>
  <object id="97" name="Lava" x="2816" y="256" width="128" height="192"/>
  <object id="98" name="Lava" x="2784" y="288" width="32" height="128"/>
  <object id="99" name="Lava" x="2944" y="288" width="32" height="128"/>
  <object id="100" name="Lava" x="2752" y="320" width="32" height="64"/>
  <object id="101" name="Lava" x="2976" y="320" width="32" height="64"/>
  <object id="102" name="Lava" x="1760" y="384" width="128" height="96"/>
  <object id="103" name="Lava" x="544" y="416" width="192" height="192"/>
  <object id="104" name="Lava" x="512" y="448" width="32" height="128"/>
  <object id="105" name="Lava" x="736" y="448" width="32" height="128"/>
  <object id="106" name="Lava" x="1888" y="448" width="32" height="256"/>
  <object id="107" name="Lava" x="480" y="480" width="32" height="64"/>
  <object id="108" name="Lava" x="768" y="480" width="32" height="64"/>
  <object id="109" name="Lava" x="1792" y="480" width="96" height="224"/>
  <object id="110" name="Lava" x="1920" y="544" width="32" height="160"/>
  <object id="111" name="Lava" x="1664" y="576" width="128" height="128"/>
  <object id="112" name="Lava" x="1952" y="576" width="96" height="128"/>
  <object id="113" name="Lava" x="1536" y="608" width="128" height="128"/>
  <object id="114" name="Lava" x="2048" y="608" width="128" height="128"/>
  <object id="115" name="Lava" x="1440" y="640" width="96" height="128"/>
  <object id="116" name="Lava" x="2176" y="640" width="96" height="128"/>
  <object id="117" name="Lava" x="1376" y="672" width="64" height="160"/>
  <object id="118" name="Lava" x="2272" y="672" width="64" height="160"/>
  <object id="119" name="Lava" x="1344" y="704" width="32" height="160"/>
  <object id="120" name="Lava" x="1664" y="704" width="32" height="32"/>
  <object id="121" name="Lava" x="2016" y="704" width="32" height="32"/>
  <object id="122" name="Lava" x="2336" y="704" width="32" height="192"/>
  <object id="123" name="Lava" x="3488" y="704" width="64" height="128"/>
  <object id="124" name="Lava" x="1280" y="736" width="64" height="128"/>
  <object id="125" name="Lava" x="1536" y="736" width="32" height="32"/>
  <object id="126" name="Lava" x="2144" y="736" width="32" height="32"/>
  <object id="127" name="Lava" x="2368" y="736" width="64" height="192"/>
  <object id="128" name="Lava" x="3424" y="736" width="64" height="96"/>
  <object id="129" name="Lava" x="3552" y="736" width="32" height="64"/>
  <object id="130" name="Lava" x="1248" y="768" width="32" height="128"/>
  <object id="131" name="Lava" x="1440" y="768" width="64" height="32"/>
  <object id="132" name="Lava" x="2208" y="768" width="64" height="32"/>
  <object id="133" name="Lava" x="2432" y="768" width="32" height="448"/>
  <object id="134" name="Lava" x="3264" y="768" width="32" height="128"/>
  <object id="135" name="Lava" x="1216" y="800" width="32" height="96"/>
  <object id="136" name="Lava" x="2464" y="800" width="32" height="416"/>
  <object id="137" name="Lava" x="3104" y="800" width="160" height="96"/>
  <object id="138" name="Lava" x="1184" y="832" width="32" height="64"/>
  <object id="139" name="Lava" x="1376" y="832" width="32" height="32"/>
  <object id="140" name="Lava" x="2304" y="832" width="32" height="32"/>
  <object id="141" name="Lava" x="2496" y="832" width="32" height="384"/>
  <object id="142" name="Lava" x="2848" y="832" width="256" height="96"/>
  <object id="143" name="Lava" x="1280" y="864" width="32" height="32"/>
  <object id="144" name="Lava" x="2528" y="864" width="320" height="96"/>
  <object id="145" name="Lava" x="3104" y="896" width="96" height="32"/>
  <object id="146" name="Lava" x="2400" y="928" width="32" height="64"/>
  <object id="147" name="Lava" x="2528" y="960" width="64" height="192"/>
  <object id="148" name="Lava" x="1120" y="1024" width="160" height="256"/>
  <object id="149" name="Lava" x="1280" y="1120" width="32" height="256"/>
  <object id="150" name="Lava" x="2400" y="1120" width="32" height="96"/>
  <object id="151" name="Lava" x="2528" y="1152" width="32" height="64"/>
  <object id="152" name="Lava" x="1088" y="1184" width="32" height="128"/>
  <object id="153" name="Lava" x="1312" y="1184" width="32" height="192"/>
  <object id="154" name="Lava" x="2368" y="1184" width="32" height="32"/>
  <object id="155" name="Lava" x="992" y="1216" width="96" height="96"/>
  <object id="156" name="Lava" x="1344" y="1216" width="32" height="192"/>
  <object id="157" name="Lava" x="928" y="1248" width="64" height="128"/>
  <object id="158" name="Lava" x="1376" y="1248" width="32" height="192"/>
  <object id="159" name="Lava" x="864" y="1280" width="64" height="96"/>
  <object id="160" name="Lava" x="1120" y="1280" width="32" height="32"/>
  <object id="161" name="Lava" x="1216" y="1280" width="64" height="32"/>
  <object id="162" name="Lava" x="1408" y="1280" width="32" height="160"/>
  <object id="163" name="Lava" x="768" y="1312" width="96" height="96"/>
  <object id="164" name="Lava" x="992" y="1312" width="64" height="32"/>
  <object id="165" name="Lava" x="1248" y="1312" width="32" height="32"/>
  <object id="166" name="Lava" x="1440" y="1312" width="64" height="160"/>
  <object id="167" name="Lava" x="2208" y="1312" width="96" height="128"/>
  <object id="168" name="Lava" x="64" y="1344" width="160" height="32"/>
  <object id="169" name="Lava" x="704" y="1344" width="64" height="128"/>
  <object id="170" name="Lava" x="1504" y="1344" width="64" height="128"/>
  <object id="171" name="Lava" x="2144" y="1344" width="64" height="128"/>
  <object id="172" name="Lava" x="2304" y="1344" width="128" height="32"/>
  <object id="173" name="Lava" x="96" y="1376" width="320" height="64"/>
  <object id="174" name="Lava" x="544" y="1376" width="160" height="96"/>
  <object id="175" name="Lava" x="864" y="1376" width="32" height="32"/>
  <object id="176" name="Lava" x="1568" y="1376" width="128" height="128"/>
  <object id="177" name="Lava" x="2016" y="1376" width="128" height="128"/>
  <object id="178" name="Lava" x="2304" y="1376" width="64" height="32"/>
  <object id="179" name="Lava" x="768" y="1408" width="64" height="32"/>
  <object id="180" name="Lava" x="1696" y="1408" width="96" height="128"/>
  <object id="181" name="Lava" x="1920" y="1408" width="96" height="128"/>
  <object id="182" name="Lava" x="2304" y="1408" width="32" height="32"/>
  <object id="183" name="Lava" x="192" y="1440" width="224" height="32"/>
  <object id="184" name="Lava" x="2208" y="1440" width="64" height="32"/>
  <object id="185" name="Lava" x="384" y="1472" width="32" height="32"/>
  <object id="186" name="Lava" x="544" y="1472" width="128" height="32"/>
  <object id="187" name="Lava" x="1536" y="1472" width="32" height="32"/>
  <object id="188" name="Lava" x="2144" y="1472" width="32" height="32"/>
  <object id="189" name="Lava" x="576" y="1504" width="32" height="32"/>
  <object id="190" name="Lava" x="1664" y="1504" width="32" height="32"/>
  <object id="191" name="Lava" x="2016" y="1504" width="32" height="32"/>
  <object id="192" name="Lava" x="3008" y="1600" width="128" height="256"/>
  <object id="193" name="Lava" x="2944" y="1632" width="64" height="192"/>
  <object id="194" name="Lava" x="3136" y="1632" width="64" height="192"/>
  <object id="195" name="Lava" x="2912" y="1664" width="32" height="128"/>
  <object id="196" name="Lava" x="3200" y="1664" width="32" height="128"/>
 </objectgroup>
 <objectgroup id="4" name="SpawnLayers">
  <object id="197" name="Player Spawn" x="1872" y="2176">
   <point/>
  </object>
  <object id="198" name="EnemySpawn" x="336" y="208">
   <point/>
  </object>
  <object id="199" name="EnemySpawn" x="3376" y="208">
   <point/>
  </object>
  <object id="200" name="EnemySpawn" x="208" y="1904">
   <point/>
  </object>
  <object id="201" name="EnemySpawn" x="3504" y="1872">
   <point/>
  </object>
  <object id="202" name="EnemySpawn" x="1840" y="336">
   <point/>
  </object>
  <object id="203" name="EnemySpawn" x="2544" y="1264">
   <point/>
  </object>
  <object id="204" name="EnemySpawn" x="1040" y="1136">
   <point/>
  </object>
  <object id="205" name="EnemySpawn" x="80" y="1040">
   <point/>
  </object>
  <object id="206" name="EnemySpawn" x="3632" y="1040">
   <point/>
  </object>
  <object id="207" name="EnemySpawn" x="1040" y="2032">
   <point/>
  </object>
  <object id="208" name="EnemySpawn" x="2640" y="464">
   <point/>
  </object>
  <object id="209" name="EnemySpawn" x="1776" y="1360">
   <point/>
  </object>
  <object id="210" name="EnemySpawn" x="2736" y="2000">
   <point/>
  </object>
  <object id="211" name="EnemySpawn" x="1072" y="336">
   <point/>
  </object>
  <object id="212" name="EnemySpawn" x="3152" y="1392">
   <point/>
  </object>
  <object id="213" name="EnemySpawn" x="624" y="720">
   <point/>
  </object>
  <object id="214" name="EnemySpawn" x="2128" y="848">
   <point/>
  </object>
  <object id="215" name="EnemySpawn" x="688" y="1584">
   <point/>
  </object>
  <object id="216" name="EnemySpawn" x="1552" y="816">
   <point/>
  </object>
  <object id="217" name="EnemySpawn" x="2224" y="1744">
   <point/>
  </object>
  <object id="218" name="EnemySpawn" x="3184" y="720">
   <point/>
  </object>
  <object id="219" name="EnemySpawn" x="1520" y="1808">
   <point/>
  </object>
  <object id="220" name="EnemySpawn" x="2288" y="112">
   <point/>
  </object>
  <object id="221" name="EnemySpawn" x="528" y="1168">
   <point/>
  </object>
  <object id="222" name="EnemySpawn" x="1456" y="112">
   <point/>
  </object>
  <object id="223" name="EnemySpawn" x="1136" y="1584">
   <point/>
  </object>
  <object id="224" name="EnemySpawn" x="208" y="624">
   <point/>
  </object>
  <object id="225" name="EnemySpawn" x="2896" y="1040">
   <point/>
  </object>
  <object id="226" name="EnemySpawn" x="624" y="2000">
   <point/>
  </object>
  <object id="227" name="EnemySpawn" x="2960" y="208">
   <point/>
  </object>
  <object id="228" name="EnemySpawn" x="2352" y="2128">
   <point/>
  </object>
  <object id="229" name="EnemySpawn" x="2800" y="1584">
   <point/>
  </object>
  <object id="230" name="EnemySpawn" x="3152" y="2064">
   <point/>
  </object>
  <object id="231" name="EnemySpawn" x="1168" y="720">
   <point/>
  </object>
  <object id="232" name="EnemySpawn" x="1424" y="1200">
   <point/>
  </object>
  <object id="233" name="EnemySpawn" x="2160" y="1296">
   <point/>
  </object>
  <object id="234" name="EnemySpawn" x="208" y="1520">
   <point/>
  </object>
  <object id="235" name="EnemySpawn" x="720" y="208">
   <point/>
  </object>
  <object id="236" name="EnemySpawn" x="2256" y="496">
   <point/>
  </object>
  <object id="237" name="EnemySpawn" x="3504" y="560">
   <point/>
  </object>
  <object id="238" name="EnemySpawn" x="2576" y="816">
   <point/>
  </object>
  <object id="239" name="EnemySpawn" x="1424" y="464">
   <point/>
  </object>
  <object id="240" name="EnemySpawn" x="1872" y="1712">
   <point/>
  </object>
  <object id="241" name="EnemySpawn" x="3280" y="1072">
   <point/>
  </object>
  <object id="242" name="EnemySpawn" x="3472" y="1520">
   <point/>
  </object>
  <object id="243" name="EnemySpawn" x="1392" y="2128">
   <point/>
  </object>
  <object id="244" name="EnemySpawn" x="1840" y="1008">
   <point/>
  </object>
  <object id="245" name="EnemySpawn" x="2864" y="688">
   <point/>
  </object>
 </objectgroup>
</map>
